X: 1044
T:Lannigan's Ball (A22)
N: page A22
N: heptatonic
N: matches 306
R: Jig
M:6/8
K:Em
D|"Em"EFE G2A|"Em"B2A B^cd|"D"D2E F2G|\
"D"ABA AFD| "Em"EFE G2A|"Em"B2A B^cd|
"G"edB "D"cBA|"Em"BGE E2:| d|"Em"e2f gfg|\
"D"fag fed|"Em"e2f gfe|"Bm"fdB B3|
"Em"e2f gff|"D"fag fed|"Em"edB "D"cBA|"Em"BGE E2:|
